assets/icons/my-setting.svg

<svg width="32" height="32" viewBox="0 0 32 32" fill="none" xmlns="http://www.w3.org/2000/svg">
<rect width="32" height="32" rx="16" fill="white"/>
<path fill-rule="evenodd" clip-rule="evenodd" d="M18.4311 5.49589C18.0361 5.3335 17.5353 5.3335 16.5337 5.3335C15.5321 5.3335 15.0314 5.3335 14.6363 5.49589C14.1096 5.71241 13.6912 6.12771 13.473 6.65044C13.3734 6.88906 13.3344 7.16656 13.3192 7.57135C13.2968 8.16622 12.9894 8.71685 12.4699 9.01449C11.9504 9.31212 11.3163 9.30101 10.786 9.02284C10.4251 8.83355 10.1635 8.72829 9.90545 8.69458C9.34022 8.62073 8.76858 8.77274 8.31629 9.11718C7.97707 9.3755 7.72668 9.80592 7.22589 10.6668C6.7251 11.5276 6.4747 11.958 6.41889 12.3787C6.34448 12.9397 6.49765 13.507 6.84471 13.9559C7.00312 14.1608 7.22575 14.333 7.57127 14.5485C8.07923 14.8652 8.40607 15.4048 8.40603 16.0002C8.406 16.5955 8.07918 17.135 7.57127 17.4517C7.22569 17.6672 7.00303 17.8395 6.8446 18.0444C6.49755 18.4933 6.34438 19.0606 6.41879 19.6215C6.4746 20.0422 6.72499 20.4727 7.22578 21.3335C7.72657 22.1943 7.97696 22.6248 8.31619 22.8831C8.76848 23.2275 9.34011 23.3795 9.90534 23.3057C10.1634 23.272 10.425 23.1667 10.7858 22.9774C11.3161 22.6993 11.9504 22.6881 12.4699 22.9858C12.9893 23.2835 13.2967 23.8341 13.3192 24.429C13.3344 24.8338 13.3734 25.1113 13.473 25.3499C13.6912 25.8726 14.1096 26.2879 14.6363 26.5044C15.0314 26.6668 15.5321 26.6668 16.5337 26.6668C17.5353 26.6668 18.0361 26.6668 18.4311 26.5044C18.9578 26.2879 19.3763 25.8726 19.5945 25.3499C19.6941 25.1113 19.733 24.8337 19.7483 24.4289C19.7707 23.8341 20.0781 23.2835 20.5975 22.9858C21.117 22.6881 21.7512 22.6992 22.2816 22.9774C22.6424 23.1666 22.904 23.2719 23.162 23.3056C23.7272 23.3794 24.2989 23.2274 24.7512 22.883C25.0904 22.6247 25.3408 22.1943 25.8416 21.3334C26.3424 20.4726 26.5927 20.0422 26.6486 19.6215C26.723 19.0605 26.5698 18.4932 26.2227 18.0443C26.0643 17.8394 25.8417 17.6672 25.4961 17.4517C24.9882 17.135 24.6614 16.5954 24.6614 16.0001C24.6614 15.4048 24.9882 14.8653 25.4961 14.5486C25.8417 14.3331 26.0644 14.1609 26.2228 13.9559C26.5699 13.5071 26.7231 12.9398 26.6487 12.3788C26.5929 11.9581 26.3425 11.5277 25.8417 10.6668C25.3409 9.80599 25.0905 9.37557 24.7513 9.11725C24.299 8.77281 23.7273 8.6208 23.1621 8.69465C22.9041 8.72836 22.6425 8.83361 22.2816 9.02288C21.7513 9.30106 21.1171 9.31218 20.5976 9.01452C20.0781 8.71686 19.7707 8.1662 19.7483 7.5713C19.733 7.16654 19.6941 6.88905 19.5945 6.65044C19.3763 6.12771 18.9578 5.71241 18.4311 5.49589Z" fill="#41CF84"/>
<path d="M19.7573 15.9998C19.7573 17.7671 18.3137 19.1998 16.533 19.1998C14.7522 19.1998 13.3086 17.7671 13.3086 15.9998C13.3086 14.2325 14.7522 12.7998 16.533 12.7998C18.3137 12.7998 19.7573 14.2325 19.7573 15.9998Z" fill="white"/>
</svg>

<svg xmlns="http://www.w3.org/2000/svg" width="32" height="32" fill="none" data-c="1"><rect width="32" height="32" fill="#fff" rx="16"/><path fill="#41CF84" fill-rule="evenodd" d="M18.431 5.496c-.395-.163-.896-.163-1.897-.163-1.002 0-1.503 0-1.898.163a2.14 2.14 0 0 0-1.163 1.154c-.1.24-.139.517-.154.921a1.72 1.72 0 0 1-.85 1.443c-.519.298-1.153.287-1.683.009-.36-.19-.622-.295-.88-.328a2.16 2.16 0 0 0-1.59.422c-.339.258-.59.689-1.09 1.55-.5.86-.751 1.291-.807 1.712a2.12 2.12 0 0 0 .426 1.577c.158.205.38.377.726.593.508.316.835.856.835 1.451s-.327 1.135-.835 1.452c-.345.215-.568.387-.726.592a2.12 2.12 0 0 0-.426 1.578c.056.42.306.85.807 1.712.5.86.751 1.29 1.09 1.55a2.16 2.16 0 0 0 1.59.422c.257-.034.519-.14.88-.329.53-.278 1.164-.289 1.684.009.52.297.827.848.85 1.443.014.405.053.682.153.92.218.524.637.939 1.163 1.155.395.163.896.163 1.898.163s1.502 0 1.897-.163a2.14 2.14 0 0 0 1.163-1.154c.1-.239.139-.516.154-.921.023-.595.33-1.145.85-1.443.519-.298 1.153-.287 1.684-.009.36.19.622.295.88.329a2.16 2.16 0 0 0 1.59-.423c.338-.258.589-.689 1.09-1.55.5-.86.75-1.29.807-1.711a2.12 2.12 0 0 0-.426-1.578c-.159-.205-.381-.377-.727-.592-.508-.317-.835-.857-.835-1.452s.327-1.135.835-1.451c.346-.216.568-.388.727-.593.347-.449.5-1.016.426-1.577-.056-.42-.306-.851-.807-1.712s-.751-1.291-1.09-1.55a2.16 2.16 0 0 0-1.59-.422c-.258.033-.52.139-.88.328-.53.278-1.165.29-1.684-.008a1.72 1.72 0 0 1-.85-1.444c-.015-.404-.054-.682-.154-.92a2.14 2.14 0 0 0-1.163-1.155" clip-rule="evenodd"/><path fill="#fff" d="M19.757 16c0 1.767-1.443 3.2-3.224 3.2-1.78 0-3.224-1.433-3.224-3.2s1.443-3.2 3.224-3.2c1.78 0 3.224 1.432 3.224 3.2"/></svg>
